X: 09117
T: URIAH'S JIG
C: Bob McQuillen 17 Mar 1991
B: Bob's Note Book 9 p. 117
R: jig
Z: 2017 John Chambers <jc:trillian.mit.edu>
L: 1/8
M: 6/8
K: D
FG |\
AFA fed | Bdf edB | AFA dBd | AFD EFG |
AFA fed | Bdf ede | fdB AFA | Bdd d :|
|: ed |\
BGB Bcd | edB AFD | BGB Adf | gfg eag |
fed edB | AdB AFD | BGB Aed | cBc d :|
%%begintext align
%% All the way from Concord, NH comes Uriah Clark
%% to the Peterborough Dance. Uriah is neither
%% too big nor too old at this point, but he likes to keep
%% me company when I'm playing the piano, and I bet that
%% someday he'll be on the floor dancing to this tune.
%%endtext

%%sep 1 1 500

%%sep 1 1 500

